themes/domainedelapothicaire/img/signatures/getin-white.svg

<?xml version="1.0" encoding="UTF-8"?><svg id="Calque_1" xmlns="http://www.w3.org/2000/svg" xmlns:xlink="http://www.w3.org/1999/xlink" viewBox="0 0 51.04 14.47"><defs><style>.cls-1{fill:none;}.cls-2{fill:#fff;}.cls-3{fill:#1d1d1b;}.cls-4{fill:url(#Dégradé_sans_nom_8);}</style><linearGradient id="Dégradé_sans_nom_8" x1="41.31" y1="10.61" x2="41.31" y2="14.07" gradientTransform="matrix(1, 0, 0, 1, 0, 0)" gradientUnits="userSpaceOnUse"><stop offset="0" stop-color="#fff"/><stop offset="1" stop-color="#fff" stop-opacity="0"/></linearGradient></defs><rect class="cls-3" x="-.23" y="-.27" width="51.28" height="14.81"/><g><polygon class="cls-1" points="34.92 12.1 37.07 12.09 37.07 12.09 34.92 12.09 34.92 12.1"/><rect class="cls-1" x="34.92" y="13.96" width="12.78" height="0"/><polygon class="cls-1" points="37.07 12.09 37.07 12.09 47.7 13.96 47.7 13.96 47.7 12.09 37.07 12.09"/><polygon class="cls-2" points="34.92 12.09 37.07 12.09 37.07 .39 30.66 .39 30.66 .4 34.92 .79 34.92 12.09"/><polygon class="cls-4" points="34.92 12.1 34.92 13.96 47.7 13.96 47.7 13.96 37.07 12.09 37.07 12.09 34.92 12.1"/><polygon points="34.92 13.96 34.92 13.96 34.91 13.96 34.92 13.96"/></g><g><path class="cls-2" d="M6.02,12.08c-.81,0-1.55-.13-2.24-.39-.69-.26-1.28-.63-1.78-1.1-.5-.47-.9-1.04-1.18-1.69-.29-.66-.43-1.38-.43-2.17v-.03c0-.75,.14-1.45,.42-2.11,.28-.66,.66-1.23,1.15-1.71,.49-.49,1.08-.87,1.76-1.15,.68-.28,1.42-.41,2.22-.41,.92,0,1.71,.13,2.37,.4,.67,.27,1.27,.64,1.83,1.11l-1.69,2.03c-.37-.32-.76-.56-1.15-.72-.39-.17-.84-.25-1.35-.25-.37,0-.72,.07-1.04,.22-.32,.15-.6,.35-.84,.61-.24,.26-.42,.56-.56,.9-.14,.35-.21,.71-.21,1.11v.03c0,.41,.07,.8,.21,1.15,.14,.35,.33,.66,.59,.91,.25,.25,.55,.45,.89,.59,.34,.14,.72,.21,1.13,.21,.67,0,1.23-.14,1.66-.43v-1.26h-2.04v-2.1h4.76v4.66c-.55,.45-1.2,.83-1.95,1.14-.75,.31-1.6,.46-2.54,.46"/><polygon class="cls-2" points="12.11 1.53 20.42 1.53 20.42 3.97 14.93 3.97 14.93 5.53 19.9 5.53 19.9 7.8 14.93 7.8 14.93 9.44 20.49 9.44 20.49 11.88 12.11 11.88 12.11 1.53"/><polygon class="cls-2" points="24.5 4.04 21.39 4.04 21.39 1.53 30.47 1.53 30.47 4.04 27.36 4.04 27.36 11.88 24.5 11.88 24.5 4.04"/><polygon class="cls-2" points="38.5 1.53 41.18 1.53 45.45 7 45.45 1.53 48.27 1.53 48.27 11.88 45.75 11.88 41.32 6.2 41.32 11.88 38.5 11.88 38.5 1.53"/></g></svg>

<?xml version="1.0" encoding="utf-8"?>
<!-- Generator: Adobe Illustrator 28.0.0, SVG Export Plug-In . SVG Version: 6.00 Build 0)  -->
<svg version="1.1" id="Calque_1" xmlns="http://www.w3.org/2000/svg" xmlns:xlink="http://www.w3.org/1999/xlink" x="0px" y="0px"
	 viewBox="0 0 51 14.5" style="enable-background:new 0 0 51 14.5;" xml:space="preserve">
<style type="text/css">
	.st0{fill:none;}
	.st1{fill:#FFFFFF;}
	.st2{fill:url(#SVGID_1_);}
</style>
<g>
	<polygon class="st0" points="34.9,12.1 37.1,12.1 37.1,12.1 34.9,12.1 	"/>
	<polygon class="st0" points="34.9,14 47.7,14 47.7,14 	"/>
	<polygon class="st0" points="37.1,12.1 37.1,12.1 47.7,14 47.7,14 47.7,12.1 	"/>
	<polygon class="st1" points="34.9,12.1 37.1,12.1 37.1,0.4 30.7,0.4 30.7,0.4 34.9,0.8 	"/>
	
		<linearGradient id="SVGID_1_" gradientUnits="userSpaceOnUse" x1="41.31" y1="4.3034" x2="41.31" y2="0.8434" gradientTransform="matrix(1 0 0 -1 0 14.9132)">
		<stop  offset="0" style="stop-color:#FFFFFF"/>
		<stop  offset="1" style="stop-color:#FFFFFF;stop-opacity:0"/>
	</linearGradient>
	<polygon class="st2" points="34.9,12.1 34.9,14 47.7,14 47.7,14 37.1,12.1 37.1,12.1 	"/>
	<polygon points="34.9,14 34.9,14 34.9,14 	"/>
</g>
<g>
	<path class="st1" d="M6,12.1c-0.8,0-1.5-0.1-2.2-0.4S2.5,11.1,2,10.6s-0.9-1-1.2-1.7C0.5,8.2,0.4,7.5,0.4,6.7v0
		c0-0.8,0.1-1.5,0.4-2.1S1.5,3.4,2,2.9C2.5,2.4,3,2,3.7,1.7s1.4-0.4,2.2-0.4c0.9,0,1.7,0.1,2.4,0.4C9,2,9.6,2.4,10.1,2.8l-1.7,2
		C8.1,4.5,7.7,4.3,7.3,4.1C6.9,4,6.5,3.9,5.9,3.9c-0.4,0-0.7,0.1-1,0.2C4.6,4.3,4.3,4.5,4.1,4.7S3.6,5.3,3.5,5.6
		C3.4,6,3.3,6.3,3.3,6.7v0c0,0.4,0.1,0.8,0.2,1.2s0.3,0.7,0.6,0.9C4.3,9.1,4.6,9.3,5,9.4c0.3,0.1,0.7,0.2,1.1,0.2
		c0.7,0,1.2-0.1,1.7-0.4V7.9h-2V5.8h4.8v4.7c-0.6,0.4-1.2,0.8-1.9,1.1S6.9,12.1,6,12.1"/>
	<polygon class="st1" points="12.1,1.5 20.4,1.5 20.4,4 14.9,4 14.9,5.5 19.9,5.5 19.9,7.8 14.9,7.8 14.9,9.4 20.5,9.4 20.5,11.9 
		12.1,11.9 	"/>
	<polygon class="st1" points="24.5,4 21.4,4 21.4,1.5 30.5,1.5 30.5,4 27.4,4 27.4,11.9 24.5,11.9 	"/>
	<polygon class="st1" points="38.5,1.5 41.2,1.5 45.5,7 45.5,1.5 48.3,1.5 48.3,11.9 45.8,11.9 41.3,6.2 41.3,11.9 38.5,11.9 	"/>
</g>
</svg>
